; generated by PrusaSlicer 2.1.1+linux64 on 2020-01-28 at 09:31:27 UTC

; Perfil 08-Cam_0.2-QualiAlta especialmente criado pela Boa Impressao 3D para voce aproveitar o maximo da sua Stella

; external perimeters extrusion width = 0.40mm
; perimeters extrusion width = 0.40mm
; infill extrusion width = 0.40mm
; solid infill extrusion width = 0.40mm
; top infill extrusion width = 0.40mm
; first layer extrusion width = 0.60mm

M107
M322 ; Clear autolevel matrix
M109 S215; Wait for extruder to heat up
G28 Y0 ; home X and Y axis
G28 X0 ; home X and Y axis
G1 X10 Y100 F6000;
G28 Z0 ;
G32 S2 ; Auto bed correction Repetier
G1 S1
G1 Z0;
G21 ; set units to millimeters
G90 ; use absolute coordinates
M82 ; use absolute distances for extrusion
G92 E0
; Filament gcode
G1 E-1.00000 F2400.00000
G92 E0
G1 Z0.300 F6600.000
;Layer #0
G1 X60.836 Y60.944
G1 E1.00000 F2400.00000
M201 X250 Y250
M202 X250 Y250
G1 F1200
G1 X61.338 Y60.512 E1.04293
G1 X61.917 Y60.189 E1.08587
G1 X62.547 Y59.986 E1.12880
G1 X63.206 Y59.911 E1.17173
G1 X136.755 Y59.911 E5.93779
G1 X137.392 Y59.973 E5.97927
G1 X138.005 Y60.156 E6.02074
G1 X138.576 Y60.455 E6.06251
G1 X139.076 Y60.854 E6.10399
G1 X139.490 Y61.342 E6.14546
G1 X139.804 Y61.900 E6.18694
G1 X140.006 Y62.512 E6.22871
G1 X140.087 Y63.147 E6.27019
G1 X140.089 Y136.791 E11.04239
G1 X140.022 Y137.414 E11.08299
G1 X139.841 Y138.013 E11.12359
G1 X139.550 Y138.569 E11.16420
G1 X139.164 Y139.056 E11.20451
G1 X138.654 Y139.493 E11.24802
G1 X138.067 Y139.818 E11.29154
G1 X137.426 Y140.020 E11.33505
G1 X136.754 Y140.089 E11.37886
G1 X63.209 Y140.089 E16.14463
G1 X62.586 Y140.022 E16.18523
G1 X61.987 Y139.841 E16.22583
G1 X61.431 Y139.550 E16.26644
G1 X60.944 Y139.164 E16.30675
G1 X60.507 Y138.654 E16.35026
G1 X60.182 Y138.067 E16.39378
G1 X59.980 Y137.426 E16.43729
G1 X59.911 Y136.754 E16.48110
G1 X59.911 Y63.209 E21.24686
G1 X59.978 Y62.586 E21.28747
G1 X60.159 Y61.987 E21.32807
G1 X60.450 Y61.431 E21.36867
G1 X60.798 Y60.991 E21.40510
M201 X600 Y600
M202 X600 Y600
G1 E20.40510 F2400.00000
G92 E0
G1 X61.232 Y61.304 F6600.000
G1 E1.00000 F2400.00000
M201 X250 Y250
M202 X250 Y250
G1 F1200
G1 X61.657 Y60.943 E1.03613
G1 X62.141 Y60.675 E1.07199
G1 X62.669 Y60.508 E1.10785
G1 X63.219 Y60.447 E1.14371
G1 X136.754 Y60.447 E5.90890
G1 X137.293 Y60.500 E5.94396
G1 X137.811 Y60.655 E5.97902
G1 X138.290 Y60.907 E6.01408
G1 X138.708 Y61.244 E6.04887
G1 X139.057 Y61.657 E6.08393
G1 X139.320 Y62.130 E6.11899
G1 X139.487 Y62.644 E6.15405
G1 X139.552 Y63.177 E6.18885
G1 X139.553 Y136.779 E10.95832
G1 X139.498 Y137.305 E10.99258
G1 X139.343 Y137.815 E11.02711
G1 X138.768 Y138.696 E11.09532
G1 X138.340 Y139.059 E11.13172
G1 X137.847 Y139.330 E11.16811
G1 X137.311 Y139.497 E11.20450
G1 X136.752 Y139.553 E11.24090
G1 X63.221 Y139.553 E16.00582
G1 X62.695 Y139.498 E16.04008
G1 X62.185 Y139.343 E16.07461
G1 X61.304 Y138.768 E16.14282
G1 X60.941 Y138.340 E16.17921
G1 X60.670 Y137.847 E16.21561
G1 X60.503 Y137.311 E16.25200
G1 X60.447 Y136.752 E16.28840
G1 X60.447 Y63.221 E21.05332
G1 X60.502 Y62.695 E21.08758
G1 X60.657 Y62.185 E21.12210
G1 X61.199 Y61.354 E21.18643
M201 X600 Y600
M202 X600 Y600
G1 E20.18643 F2400.00000
G92 E0
G1 X61.624 Y61.670 F6600.000
G1 E1.00000 F2400.00000
M201 X250 Y250
M202 X250 Y250
G1 F1200
G1 X62.358 Y61.165 E1.05772
G1 X63.230 Y60.982 E1.11545
G1 X136.754 Y60.982 E5.87991
G1 X137.610 Y61.151 E5.93645
G1 X138.338 Y61.631 E5.99299
G1 X138.832 Y62.351 E6.04953
G1 X139.017 Y63.204 E6.10607
G1 X139.018 Y136.769 E10.87318
G1 X138.847 Y137.613 E10.92901
G1 X138.376 Y138.330 E10.98461
G1 X137.632 Y138.839 E11.04304
G1 X136.750 Y139.018 E11.10136
G1 X63.231 Y139.018 E15.86545
G1 X62.387 Y138.847 E15.92129
G1 X61.670 Y138.376 E15.97688
G1 X61.161 Y137.632 E16.03532
G1 X60.982 Y136.750 E16.09363
G1 X60.982 Y63.231 E20.85773
G1 X61.153 Y62.387 E20.91356
G1 X61.591 Y61.720 E20.96527
M201 X600 Y600
M202 X600 Y600
G1 E19.96527 F2400.00000
G92 E0
G1 X61.921 Y62.843 F6600.000
G1 E1.00000 F2400.00000
M201 X250 Y250
M202 X250 Y250
G1 F1200
G1 X62.052 Y62.554 E1.02059
G1 X62.554 Y62.052 E1.06657
G1 X62.895 Y61.911 E1.09050
G1 X137.105 Y61.911 E5.89937
G1 X137.446 Y62.052 E5.92331
G1 X137.948 Y62.554 E5.96929
G1 X138.089 Y62.895 E5.99322
G1 X138.089 Y137.105 E10.80209
G1 X137.948 Y137.446 E10.82602
G1 X137.446 Y137.948 E10.87200
G1 X137.105 Y138.089 E10.89594
G1 X62.895 Y138.089 E15.70481
G1 X62.554 Y137.948 E15.72874
G1 X62.052 Y137.446 E15.77472
G1 X61.911 Y137.105 E15.79865
G1 X61.911 Y62.902 E20.60706
M201 X600 Y600
M202 X600 Y600
G1 E19.60706 F2400.00000
G92 E0
G1 X62.487 Y62.876 F6600.000
G1 E1.00000 F2400.00000
M201 X250 Y250
M202 X250 Y250
G1 F1200
G1 X62.876 Y62.487 E1.03566
G1 X62.975 Y62.447 E1.04256
G1 X137.025 Y62.447 E5.84111
G1 X137.124 Y62.487 E5.84802
G1 X137.513 Y62.876 E5.88367
G1 X137.553 Y62.975 E5.89058
G1 X137.553 Y137.025 E10.68913
G1 X137.513 Y137.124 E10.69603
G1 X137.124 Y137.513 E10.73169
G1 X137.025 Y137.553 E10.73859
G1 X62.975 Y137.553 E15.53714
G1 X62.876 Y137.513 E15.54405
G1 X62.487 Y137.124 E15.57970
G1 X62.447 Y137.025 E15.58661
G1 X62.447 Y62.975 E20.38516
G1 X62.464 Y62.932 E20.38817
M201 X600 Y600
M202 X600 Y600
G1 E19.38817 F2400.00000
G92 E0
G1 X62.982 Y63.139 F6600.000
G1 E1.00000 F2400.00000
M201 X250 Y250
M202 X250 Y250
G1 F1200
G1 X63.139 Y62.982 E1.01438
G1 X136.861 Y62.982 E5.79165
G1 X137.018 Y63.139 E5.80602
G1 X137.018 Y136.861 E10.58329
G1 X136.861 Y137.018 E10.59767
G1 X63.139 Y137.018 E15.37494
G1 X62.982 Y136.861 E15.38931
G1 X62.982 Y63.199 E20.16269
M201 X600 Y600
M202 X600 Y600
G1 E19.16269 F2400.00000
G92 E0
G1 X63.550 Y63.550 F6600.000
G1 E1.00000 F2400.00000
M201 X250 Y250
M202 X250 Y250
G1 F1200
G1 X136.450 Y63.550 E5.72401
G1 X136.450 Y136.450 E10.44802
G1 X63.550 Y136.450 E15.17203
G1 X63.550 Y63.610 E19.89216
M201 X600 Y600
M202 X600 Y600
G1 X63.936 Y63.654 F6600.000
G1 E18.89216 F2400.00000
G92 E0
G1 X64.086 Y64.086 F6600.000
G1 E1.00000 F2400.00000
M201 X250 Y250
M202 X250 Y250
G1 F1200
G1 X135.914 Y64.086 E5.65459
G1 X135.914 Y135.914 E10.30919
G1 X64.086 Y135.914 E14.96378
G1 X64.086 Y64.146 E19.61449
M201 X600 Y600
M202 X600 Y600
G1 E18.61449 F2400.00000
G92 E0
G1 X66.978 Y115.169 F6600.000
G1 E1.00000 F2400.00000
M201 X250 Y250
M202 X250 Y250
G1 F1200
G1 X69.694 Y120.250 E1.37333
G1 X74.227 Y125.773 E1.83634
G1 X79.750 Y130.306 E2.29936
G1 X84.831 Y133.022 E2.67268
G1 X84.699 Y133.550 E2.70798
G1 X66.450 Y133.550 E3.89052
G1 X66.450 Y115.301 E5.07306
G1 X66.920 Y115.184 E5.10447
M201 X600 Y600
M202 X600 Y600
G1 X67.245 Y114.871 F6600.000
G1 E4.10447 F2400.00000
G92 E0
G1 X65.914 Y114.883 F6600.000
G1 E1.00000 F2400.00000
M201 X250 Y250
M202 X250 Y250
G1 F1200
G1 X67.254 Y114.548 E1.08947
G1 X70.142 Y119.951 E1.48647
G1 X74.608 Y125.392 E1.94265
G1 X80.049 Y129.858 E2.39883
G1 X85.452 Y132.746 E2.79581
G1 X85.117 Y134.086 E2.88529
G1 X65.914 Y134.086 E4.12962
G1 X65.914 Y114.943 E5.37007
M201 X600 Y600
M202 X600 Y600
G1 E4.37007 F2400.00000
G92 E0
G1 X66.978 Y84.831 F6600.000
G1 E1.00000 F2400.00000
M201 X250 Y250
M202 X250 Y250
G1 F1200
G1 X66.450 Y84.699 E1.03530
G1 X66.450 Y66.450 E2.21784
G1 X84.699 Y66.450 E3.40038
G1 X84.831 Y66.978 E3.43568
G1 X79.750 Y69.694 E3.80900
G1 X74.227 Y74.227 E4.27202
G1 X69.694 Y79.750 E4.73503
G1 X67.007 Y84.778 E5.10446
M201 X600 Y600
M202 X600 Y600
G1 X66.836 Y85.205 F6600.000
G1 E4.10446 F2400.00000
G92 E0
G1 X65.914 Y65.914 F6600.000
G1 E1.00000 F2400.00000
M201 X250 Y250
M202 X250 Y250
G1 F1200
G1 X85.117 Y65.914 E2.24433
G1 X85.452 Y67.254 E2.33381
G1 X80.049 Y70.142 E2.73080
G1 X74.608 Y74.608 E3.18698
G1 X70.142 Y80.049 E3.64316
G1 X67.254 Y85.452 E4.04015
G1 X65.914 Y85.117 E4.12962
G1 X65.914 Y65.974 E5.37007
M201 X600 Y600
M202 X600 Y600
G1 E4.37007 F2400.00000
G92 E0
G1 X89.575 Y66.450 F6600.000
G1 E1.00000 F2400.00000
M201 X250 Y250
M202 X250 Y250
G1 F1200
G1 X110.425 Y66.450 E2.35106
G1 X113.509 Y67.386 E2.55994
G1 X119.612 Y70.648 E3.00839
G1 X124.962 Y75.038 E3.45683
G1 X129.352 Y80.388 E3.90527
G1 X132.614 Y86.491 E4.35372
G1 X133.550 Y89.575 E4.56260
G1 X133.550 Y110.425 E5.91366
G1 X132.614 Y113.509 E6.12254
G1 X129.352 Y119.612 E6.57099
G1 X124.962 Y124.962 E7.01943
G1 X119.612 Y129.352 E7.46788
G1 X113.509 Y132.614 E7.91632
G1 X110.425 Y133.550 E8.12520
G1 X89.575 Y133.550 E9.47626
G1 X86.491 Y132.614 E9.68514
G1 X80.388 Y129.352 E10.13358
G1 X75.038 Y124.962 E10.58203
G1 X70.648 Y119.612 E11.03047
G1 X67.386 Y113.509 E11.47892
G1 X66.450 Y110.425 E11.68780
G1 X66.450 Y89.575 E13.03886
G1 X67.386 Y86.491 E13.24774
G1 X70.648 Y80.388 E13.69619
G1 X75.038 Y75.038 E14.14463
G1 X80.388 Y70.648 E14.59307
G1 X86.491 Y67.386 E15.04152
G1 X89.518 Y66.467 E15.24651
M201 X600 Y600
M202 X600 Y600
G1 X89.724 Y66.079 F6600.000
G1 E14.24651 F2400.00000
G92 E0
G1 X89.362 Y65.955 F6600.000
G1 E1.00000 F2400.00000
M201 X250 Y250
M202 X250 Y250
G1 F1200
G1 X89.496 Y65.914 E1.00904
G1 X110.504 Y65.914 E2.37040
G1 X113.715 Y66.888 E2.58784
G1 X119.911 Y70.200 E3.04312
G1 X125.342 Y74.658 E3.49841
G1 X129.800 Y80.089 E3.95369
G1 X133.112 Y86.285 E4.40897
G1 X134.086 Y89.496 E4.62642
G1 X134.086 Y110.504 E5.98777
G1 X133.112 Y113.715 E6.20522
G1 X129.800 Y119.911 E6.66050
G1 X125.342 Y125.342 E7.11579
G1 X119.911 Y129.800 E7.57107
G1 X113.715 Y133.112 E8.02635
G1 X110.504 Y134.086 E8.24380
G1 X89.496 Y134.086 E9.60516
G1 X86.285 Y133.112 E9.82260
G1 X80.089 Y129.800 E10.27788
G1 X74.658 Y125.343 E10.73316
G1 X70.200 Y119.911 E11.18844
G1 X66.888 Y113.715 E11.64372
G1 X65.914 Y110.504 E11.86118
G1 X65.914 Y89.496 E13.22254
G1 X66.888 Y86.285 E13.43998
G1 X70.200 Y80.089 E13.89526
G1 X74.658 Y74.658 E14.35054
G1 X80.089 Y70.200 E14.80583
G1 X86.285 Y66.888 E15.26111
G1 X89.305 Y65.972 E15.46563
M201 X600 Y600
M202 X600 Y600
G1 E14.46563 F2400.00000
G92 E0
G1 X115.169 Y66.978 F6600.000
G1 E1.00000 F2400.00000
M201 X250 Y250
M202 X250 Y250
G1 F1200
G1 X115.301 Y66.450 E1.03530
G1 X133.550 Y66.450 E2.21784
G1 X133.550 Y84.699 E3.40038
G1 X133.022 Y84.831 E3.43568
G1 X130.306 Y79.750 E3.80900
G1 X125.773 Y74.227 E4.27201
G1 X120.250 Y69.694 E4.73503
G1 X115.222 Y67.007 E5.10446
M201 X600 Y600
M202 X600 Y600
G1 X114.795 Y66.836 F6600.000
G1 E4.10446 F2400.00000
G92 E0
G1 X114.883 Y65.914 F6600.000
G1 E1.00000 F2400.00000
M201 X250 Y250
M202 X250 Y250
G1 F1200
G1 X134.086 Y65.914 E2.24433
G1 X134.086 Y85.117 E3.48867
G1 X132.746 Y85.452 E3.57814
G1 X129.858 Y80.049 E3.97513
G1 X125.392 Y74.608 E4.43131
G1 X119.951 Y70.142 E4.88749
G1 X114.548 Y67.254 E5.28448
G1 X114.869 Y65.973 E5.37007
M201 X600 Y600
M202 X600 Y600
G1 E4.37007 F2400.00000
G92 E0
G1 X133.022 Y115.169 F6600.000
G1 E1.00000 F2400.00000
M201 X250 Y250
M202 X250 Y250
G1 F1200
G1 X133.550 Y115.301 E1.03530
G1 X133.550 Y133.550 E2.21784
G1 X115.301 Y133.550 E3.40038
G1 X115.169 Y133.022 E3.43568
G1 X120.250 Y130.306 E3.80900
G1 X125.773 Y125.773 E4.27201
G1 X130.306 Y120.250 E4.73503
G1 X132.993 Y115.222 E5.10447
M201 X600 Y600
M202 X600 Y600
G1 X133.164 Y114.795 F6600.000
G1 E4.10447 F2400.00000
G92 E0
G1 X132.746 Y114.548 F6600.000
G1 E1.00000 F2400.00000
M201 X250 Y250
M202 X250 Y250
G1 F1200
G1 X134.086 Y114.883 E1.08947
G1 X134.086 Y134.086 E2.33381
G1 X114.883 Y134.086 E3.57814
G1 X114.548 Y132.746 E3.66762
G1 X119.951 Y129.858 E4.06461
G1 X125.392 Y125.392 E4.52079
G1 X129.858 Y119.951 E4.97696
G1 X132.718 Y114.601 E5.37007
M201 X600 Y600
M202 X600 Y600
G1 E4.37007 F2400.00000
G92 E0
G1 X133.236 Y113.823 F6600.000
G1 E1.00000 F2400.00000
M201 X250 Y250
M202 X250 Y250
G1 F1200
G1 X134.145 Y114.733 E1.08376
M201 X600 Y600
M202 X600 Y600
G1 E0.08376 F2400.00000
G92 E0
G1 X114.733 Y134.146 F6600.000
G1 E1.00000 F2400.00000
M201 X250 Y250
M202 X250 Y250
G1 F1200
G1 X114.001 Y133.414 E1.06736
G1 X113.870 Y133.484 E1.07708
G1 X113.441 Y133.615 E1.10629
G1 X115.339 Y135.513 E1.28111
G1 X116.100 Y135.513 E1.33069
G1 X115.074 Y134.487 E1.42513
G1 X115.836 Y134.487 E1.47471
G1 X116.861 Y135.513 E1.56915
G1 X117.622 Y135.513 E1.61873
G1 X116.597 Y134.487 E1.71317
G1 X117.358 Y134.487 E1.76275
G1 X118.384 Y135.513 E1.85719
G1 X119.145 Y135.513 E1.90677
G1 X118.120 Y134.487 E2.00121
G1 X118.881 Y134.487 E2.05079
G1 X119.906 Y135.513 E2.14523
G1 X120.668 Y135.513 E2.19481
G1 X119.642 Y134.487 E2.28925
G1 X120.403 Y134.487 E2.33883
G1 X121.429 Y135.513 E2.43327
G1 X122.190 Y135.513 E2.48285
G1 X121.165 Y134.487 E2.57729
G1 X121.926 Y134.487 E2.62687
G1 X122.951 Y135.513 E2.72131
G1 X123.713 Y135.513 E2.77089
G1 X122.687 Y134.487 E2.86534
G1 X123.449 Y134.487 E2.91492
G1 X124.474 Y135.513 E3.00936
G1 X125.235 Y135.513 E3.05894
G1 X124.210 Y134.487 E3.15338
G1 X124.971 Y134.487 E3.20296
G1 X125.997 Y135.513 E3.29740
G1 X126.758 Y135.513 E3.34698
G1 X125.732 Y134.487 E3.44142
G1 X126.494 Y134.487 E3.49100
G1 X127.519 Y135.513 E3.58544
G1 X128.280 Y135.513 E3.63502
G1 X127.255 Y134.487 E3.72946
G1 X128.016 Y134.487 E3.77904
G1 X129.042 Y135.513 E3.87348
G1 X129.803 Y135.513 E3.92306
G1 X128.778 Y134.487 E4.01750
G1 X129.539 Y134.487 E4.06708
G1 X130.564 Y135.513 E4.16152
G1 X131.326 Y135.513 E4.21110
G1 X130.300 Y134.487 E4.30554
G1 X131.061 Y134.487 E4.35512
G1 X132.087 Y135.513 E4.44956
G1 X132.848 Y135.513 E4.49914
G1 X131.823 Y134.487 E4.59358
G1 X132.584 Y134.487 E4.64316
G1 X133.609 Y135.513 E4.73761
G1 X134.371 Y135.513 E4.78719
G1 X133.345 Y134.487 E4.88163
G1 X134.107 Y134.487 E4.93121
G1 X135.132 Y135.513 E5.02565
G1 X135.513 Y135.513 E5.05044
G1 X135.513 Y135.132 E5.07523
G1 X134.487 Y134.107 E5.16967
G1 X134.487 Y133.345 E5.21925
G1 X135.513 Y134.371 E5.31369
G1 X135.513 Y133.610 E5.36327
G1 X134.487 Y132.584 E5.45771
G1 X134.487 Y131.823 E5.50729
G1 X135.513 Y132.848 E5.60173
G1 X135.513 Y132.087 E5.65131
G1 X134.487 Y131.062 E5.74575
G1 X134.487 Y130.300 E5.79533
G1 X135.513 Y131.326 E5.88977
G1 X135.513 Y130.564 E5.93935
G1 X134.487 Y129.539 E6.03379
G1 X134.487 Y128.778 E6.08337
G1 X135.513 Y129.803 E6.17781
G1 X135.513 Y129.042 E6.22739
G1 X134.487 Y128.016 E6.32183
G1 X134.487 Y127.255 E6.37141
G1 X135.513 Y128.280 E6.46586
G1 X135.513 Y127.519 E6.51544
G1 X134.487 Y126.494 E6.60988
G1 X134.487 Y125.733 E6.65946
G1 X135.513 Y126.758 E6.75390
G1 X135.513 Y125.997 E6.80348
G1 X134.487 Y124.971 E6.89792
G1 X134.487 Y124.210 E6.94750
G1 X135.513 Y125.235 E7.04194
G1 X135.513 Y124.474 E7.09152
G1 X134.487 Y123.449 E7.18596
G1 X134.487 Y122.687 E7.23554
G1 X135.513 Y123.713 E7.32998
G1 X135.513 Y122.951 E7.37956
G1 X134.487 Y121.926 E7.47400
G1 X134.487 Y121.165 E7.52358
G1 X135.513 Y122.190 E7.61802
G1 X135.513 Y121.429 E7.66760
G1 X134.487 Y120.404 E7.76204
G1 X134.487 Y119.642 E7.81162
G1 X135.513 Y120.668 E7.90606
G1 X135.513 Y119.906 E7.95564
G1 X134.487 Y118.881 E8.05008
G1 X134.487 Y118.120 E8.09966
G1 X135.513 Y119.145 E8.19411
G1 X135.513 Y118.384 E8.24369
G1 X134.487 Y117.358 E8.33813
G1 X134.487 Y116.597 E8.38771
G1 X135.513 Y117.622 E8.48215
G1 X135.513 Y116.861 E8.53173
G1 X134.487 Y115.836 E8.62617
G1 X134.487 Y115.075 E8.67575
G1 X135.513 Y116.100 E8.77019
G1 X135.513 Y115.339 E8.81977
G1 X133.615 Y113.441 E8.99459
G1 X133.792 Y112.856 E9.03434
G1 X135.513 Y114.577 E9.19284
G1 X135.513 Y113.816 E9.24242
G1 X133.969 Y112.272 E9.38460
G1 X134.146 Y111.688 E9.42435
G1 X135.513 Y113.055 E9.55021
G1 X135.513 Y112.293 E9.59979
G1 X134.323 Y111.104 E9.70933
G1 X134.487 Y110.564 E9.74611
G1 X134.487 Y110.507 E9.74982
G1 X135.513 Y111.532 E9.84426
G1 X135.513 Y110.771 E9.89384
G1 X134.487 Y109.746 E9.98828
G1 X134.487 Y108.984 E10.03786
G1 X135.513 Y110.010 E10.13230
G1 X135.513 Y109.248 E10.18188
G1 X134.487 Y108.223 E10.27632
G1 X134.487 Y107.462 E10.32590
G1 X135.513 Y108.487 E10.42034
G1 X135.513 Y107.726 E10.46992
G1 X134.487 Y106.700 E10.56436
G1 X134.487 Y105.939 E10.61394
G1 X135.513 Y106.964 E10.70838
G1 X135.513 Y106.203 E10.75796
G1 X134.487 Y105.178 E10.85240
G1 X134.487 Y104.417 E10.90198
G1 X135.513 Y105.442 E10.99642
G1 X135.513 Y104.681 E11.04600
G1 X134.487 Y103.655 E11.14045
G1 X134.487 Y102.894 E11.19003
G1 X135.513 Y103.919 E11.28447
G1 X135.513 Y103.158 E11.33405
G1 X134.487 Y102.133 E11.42849
