; generated by Slic3r 1.3.0 on 2020-03-20 at 12:10:03

; Print Config Notes: 
; Perfil especialmente criado para voce usar a Stella no seu maximo pela Boa Impressao 3D
; 
; external perimeters extrusion width = 0.40mm (2.50mm^3/s)
; perimeters extrusion width = 0.40mm (2.50mm^3/s)
; infill extrusion width = 0.40mm (3.21mm^3/s)
; solid infill extrusion width = 0.40mm (3.21mm^3/s)
; top infill extrusion width = 0.40mm (2.50mm^3/s)
; support material extrusion width = 0.25mm (1.45mm^3/s)

M107
M322 ; Clear autolevel matrix
M109 S205; Wait for extruder to heat up
G28 Y0 ; home X and Y axis
G28 X0 ; home X and Y axis
G1 X10 Y100 F6000;
G28 Z0 ;
G32 S2 ; Auto bed correction Repetier
G1 Z0;
; Filament gcode

G21 ; set units to millimeters
G90 ; use absolute coordinates
M82 ; use absolute distances for extrusion
G92 E0
G10
G92 E0
G1 Z0.450 F6000.000
;Layer #0
G1 X59.027 Y58.002 F6000.000
G11
G92 E0
G1 F1500
G1 X60.625 Y57.554 E0.10423
G1 X139.375 Y57.554 E5.04951
G1 X140.879 Y57.947 E5.14713
G1 X141.998 Y59.027 E5.24476
G1 X142.446 Y60.625 E5.34900
G1 X142.446 Y139.375 E10.29427
G1 X142.053 Y140.879 E10.39190
G1 X140.973 Y141.998 E10.48952
G1 X139.375 Y142.446 E10.59376
G1 X60.625 Y142.446 E15.53903
G1 X59.121 Y142.053 E15.63666
G1 X58.002 Y140.973 E15.73429
G1 X57.554 Y139.375 E15.83852
G1 X57.554 Y60.625 E20.78379
G1 X57.947 Y59.121 E20.88142
G1 X58.985 Y58.045 E20.97528
G1 X59.537 Y58.335 F6000.000
G1 F1500
G1 X60.625 Y58.089 E21.04535
G1 X139.375 Y58.089 E25.99062
G1 X140.730 Y58.481 E26.07917
G1 X141.665 Y59.537 E26.16773
G1 X141.911 Y60.625 E26.23779
G1 X141.911 Y139.375 E31.18306
G1 X141.519 Y140.730 E31.27162
G1 X140.463 Y141.665 E31.36017
G1 X139.375 Y141.911 E31.43024
G1 X60.625 Y141.911 E36.37551
G1 X59.270 Y141.519 E36.46406
G1 X58.335 Y140.463 E36.55261
G1 X58.089 Y139.375 E36.62268
G1 X58.089 Y60.625 E41.56795
G1 X58.481 Y59.270 E41.65651
G1 X59.492 Y58.375 E41.74129
G1 X59.987 Y59.086 F6000.000
G1 F1500
G1 X140.013 Y59.086 E51.12361
G1 X140.914 Y59.987 E51.27313
G1 X140.914 Y140.013 E60.65545
G1 X140.013 Y140.914 E60.80496
G1 X59.987 Y140.914 E70.18728
G1 X59.086 Y140.013 E70.33680
G1 X59.086 Y59.987 E79.71912
G1 X59.945 Y59.128 E79.86160
G1 X60.402 Y60.086 F6000.000
G1 F1500
G1 X139.598 Y60.086 E89.14679
G1 X139.914 Y60.402 E89.19918
G1 X139.914 Y139.598 E98.48437
G1 X139.598 Y139.914 E98.53676
G1 X60.402 Y139.914 E107.82195
G1 X60.086 Y139.598 E107.87434
G1 X60.086 Y60.402 E117.15954
G1 X60.359 Y60.128 E117.20489
G10
G92 E0
G1 X139.075 Y139.075 F6000.000
G11
G92 E0
G1 F1500
G1 X60.925 Y139.075 E4.90759
G1 X60.925 Y60.925 E9.81518
G1 X139.075 Y60.925 E14.72278
G1 X139.075 Y139.015 E19.62660
G1 X138.689 Y138.971 F6000.000
G1 X138.539 Y138.539 F6000.000
G1 F1500
G1 X61.461 Y138.539 E24.46692
G1 X61.461 Y61.461 E29.30724
G1 X138.539 Y61.461 E34.14757
G1 X138.539 Y138.479 E38.98412
G10
G92 E0
G1 X83.730 Y135.395 F6000.000
G11
G92 E0
G1 F1500
G1 X83.597 Y135.925 E0.03430
G1 X64.075 Y135.925 E1.26024
G1 X64.075 Y116.403 E2.48619
G1 X64.605 Y116.270 E2.52049
G1 X67.512 Y121.708 E2.90772
G1 X72.371 Y127.629 E3.38873
G1 X78.292 Y132.489 E3.86974
G1 X83.677 Y135.367 E4.25319
G1 X84.104 Y135.537 F6000.000
G10
G92 E0
G1 X64.605 Y83.730 F6000.000
G11
G92 E0
G1 F1500
G1 X64.075 Y83.597 E0.03430
G1 X64.075 Y64.075 E1.26024
G1 X83.597 Y64.075 E2.48619
G1 X83.730 Y64.605 E2.52049
G1 X78.292 Y67.512 E2.90771
G1 X72.371 Y72.371 E3.38872
G1 X67.512 Y78.292 E3.86974
G1 X64.633 Y83.677 E4.25319
G1 X64.463 Y84.104 F6000.000
G1 X65.076 Y85.534 F6000.000
G1 F1500
G1 X68.569 Y78.999 E4.71854
G1 X73.270 Y73.270 E5.18389
G1 X78.999 Y68.569 E5.64924
G1 X85.534 Y65.076 E6.11459
G1 X88.834 Y64.075 E6.33114
G1 X111.166 Y64.075 E7.73354
G1 X114.466 Y65.076 E7.95009
G1 X121.001 Y68.569 E8.41544
G1 X126.730 Y73.270 E8.88079
G1 X131.431 Y78.999 E9.34614
G1 X134.924 Y85.534 E9.81149
G1 X135.925 Y88.834 E10.02804
G1 X135.925 Y111.166 E11.43043
G1 X134.924 Y114.466 E11.64698
G1 X131.431 Y121.001 E12.11233
G1 X126.730 Y126.730 E12.57768
G1 X121.001 Y131.431 E13.04303
G1 X114.466 Y134.924 E13.50838
G1 X111.166 Y135.925 E13.72493
G1 X88.834 Y135.925 E15.12733
G1 X85.534 Y134.924 E15.34387
G1 X78.999 Y131.431 E15.80922
G1 X73.270 Y126.730 E16.27457
G1 X68.569 Y121.001 E16.73992
G1 X65.076 Y114.466 E17.20527
G1 X64.075 Y111.166 E17.42182
G1 X64.075 Y88.834 E18.82422
G1 X65.059 Y85.591 E19.03700
G1 X64.816 Y85.230 F6000.000
G10
G92 E0
G1 X116.270 Y64.605 F6000.000
G11
G92 E0
G1 F1500
G1 X116.403 Y64.075 E0.03430
G1 X135.925 Y64.075 E1.26024
G1 X135.925 Y83.597 E2.48619
G1 X135.395 Y83.730 E2.52049
G1 X132.488 Y78.292 E2.90771
G1 X127.629 Y72.371 E3.38872
G1 X121.708 Y67.512 E3.86973
G1 X116.323 Y64.633 E4.25319
G1 X115.896 Y64.463 F6000.000
G10
G92 E0
G1 X135.395 Y116.270 F6000.000
G11
G92 E0
G1 F1500
G1 X135.925 Y116.403 E0.03430
G1 X135.925 Y135.925 E1.26024
G1 X116.403 Y135.925 E2.48619
G1 X116.270 Y135.395 E2.52049
G1 X121.708 Y132.488 E2.90771
G1 X127.629 Y127.629 E3.38872
G1 X132.488 Y121.708 E3.86973
G1 X135.367 Y116.323 E4.25319
G1 X135.524 Y115.891 F6000.000
G1 X136.461 Y115.985 F6000.000
G1 F1500
G1 X136.461 Y136.461 E5.53902
G1 X115.985 Y136.461 E6.82486
G1 X115.600 Y134.925 E6.92426
G1 X114.672 Y135.421 E6.99034
G1 X111.246 Y136.461 E7.21519
G1 X88.754 Y136.461 E8.62757
G1 X85.328 Y135.421 E8.85241
G1 X84.400 Y134.925 E8.91850
G1 X84.015 Y136.461 E9.01790
G1 X63.539 Y136.461 E10.30373
G1 X63.539 Y115.985 E11.58956
G1 X65.075 Y115.600 E11.68896
G1 X64.579 Y114.672 E11.75504
G1 X63.539 Y111.246 E11.97990
G1 X63.539 Y88.754 E13.39227
G1 X64.579 Y85.328 E13.61712
G1 X65.075 Y84.400 E13.68320
G1 X63.539 Y84.015 E13.78260
G1 X63.539 Y63.539 E15.06844
G1 X84.015 Y63.539 E16.35427
G1 X84.400 Y65.075 E16.45367
G1 X85.328 Y64.579 E16.51975
G1 X88.754 Y63.539 E16.74460
G1 X111.246 Y63.539 E18.15698
G1 X114.672 Y64.579 E18.38183
G1 X115.600 Y65.075 E18.44791
G1 X115.985 Y63.539 E18.54731
G1 X136.461 Y63.539 E19.83315
G1 X136.461 Y84.015 E21.11898
G1 X134.925 Y84.400 E21.21838
G1 X135.421 Y85.328 E21.28446
G1 X136.461 Y88.754 E21.50931
G1 X136.461 Y111.246 E22.92169
G1 X135.421 Y114.672 E23.14654
G1 X134.925 Y115.600 E23.21262
G1 X136.402 Y115.970 E23.30825
G1 X134.892 Y115.868 F6000.000
G1 F1500
G1 X131.959 Y121.354 E23.79401
G1 X127.179 Y127.179 E24.38234
G1 X121.354 Y131.959 E24.97066
G1 X115.868 Y134.892 E25.45642
G10
G92 E0
G1 X135.667 Y138.061 F6000.000
G11
G92 E0
G1 F1500
G1 X136.788 Y136.939 E0.09991
G1 X136.028 Y136.939 E0.14781
G1 X134.907 Y138.061 E0.24772
G1 X134.146 Y138.061 E0.29561
G1 X135.268 Y136.939 E0.39552
G1 X134.508 Y136.939 E0.44342
G1 X133.386 Y138.061 E0.54333
G1 X132.626 Y138.061 E0.59122
G1 X133.748 Y136.939 E0.69113
G1 X132.987 Y136.939 E0.73903
G1 X131.866 Y138.061 E0.83894
G1 X131.106 Y138.061 E0.88683
G1 X132.227 Y136.939 E0.98675
G1 X131.467 Y136.939 E1.03464
G1 X130.346 Y138.061 E1.13455
G1 X129.586 Y138.061 E1.18244
G1 X130.707 Y136.939 E1.28236
G1 X129.947 Y136.939 E1.33025
G1 X128.826 Y138.061 E1.43016
G1 X128.066 Y138.061 E1.47806
G1 X129.187 Y136.939 E1.57797
G1 X128.427 Y136.939 E1.62586
G1 X127.306 Y138.061 E1.72577
G1 X126.546 Y138.061 E1.77367
G1 X127.667 Y136.939 E1.87358
G1 X126.907 Y136.939 E1.92147
G1 X125.786 Y138.061 E2.02139
G1 X125.026 Y138.061 E2.06928
G1 X126.147 Y136.939 E2.16919
G1 X125.387 Y136.939 E2.21708
G1 X124.266 Y138.061 E2.31700
G1 X123.505 Y138.061 E2.36489
G1 X124.627 Y136.939 E2.46480
G1 X123.867 Y136.939 E2.51270
G1 X122.745 Y138.061 E2.61261
G1 X121.985 Y138.061 E2.66050
G1 X123.106 Y136.939 E2.76041
G1 X122.346 Y136.939 E2.80831
G1 X121.225 Y138.061 E2.90822
G1 X120.465 Y138.061 E2.95611
G1 X121.586 Y136.939 E3.05602
G1 X120.826 Y136.939 E3.10392
G1 X119.705 Y138.061 E3.20383
G1 X118.945 Y138.061 E3.25172
G1 X120.066 Y136.939 E3.35164
G1 X119.306 Y136.939 E3.39953
G1 X118.185 Y138.061 E3.49944
G1 X117.425 Y138.061 E3.54734
G1 X118.546 Y136.939 E3.64725
G1 X117.786 Y136.939 E3.69514
G1 X116.665 Y138.061 E3.79505
G1 X115.905 Y138.061 E3.84295
G1 X117.026 Y136.939 E3.94286
G1 X116.266 Y136.939 E3.99075
G1 X115.145 Y138.061 E4.09066
G1 X114.385 Y138.061 E4.13856
G1 X115.600 Y136.845 E4.24686
G1 X115.448 Y136.237 E4.28634
G1 X113.624 Y138.061 E4.44881
G1 X112.864 Y138.061 E4.49670
G1 X115.211 Y135.714 E4.70582
G1 X114.935 Y135.862 E4.72556
G1 X114.028 Y136.137 E4.78524
G1 X112.104 Y138.061 E4.95670
G1 X111.344 Y138.061 E5.00459
G1 X112.937 Y136.468 E5.14655
G1 X111.846 Y136.799 E5.21839
G1 X110.584 Y138.061 E5.33086
G1 X109.824 Y138.061 E5.37875
G1 X110.945 Y136.939 E5.47866
G1 X110.185 Y136.939 E5.52656
G1 X109.064 Y138.061 E5.62647
G1 X108.304 Y138.061 E5.67436
G1 X109.425 Y136.939 E5.77428
G1 X108.665 Y136.939 E5.82217
G1 X107.544 Y138.061 E5.92208
G1 X106.784 Y138.061 E5.96997
G1 X107.905 Y136.939 E6.06989
G1 X107.145 Y136.939 E6.11778
G1 X106.024 Y138.061 E6.21769
G1 X105.264 Y138.061 E6.26559
G1 X106.385 Y136.939 E6.36550
G1 X105.625 Y136.939 E6.41339
G1 X104.504 Y138.061 E6.51330
G1 X103.744 Y138.061 E6.56120
G1 X104.865 Y136.939 E6.66111
G1 X104.105 Y136.939 E6.70900
G1 X102.983 Y138.061 E6.80891
G1 X102.223 Y138.061 E6.85681
G1 X103.345 Y136.939 E6.95672
G1 X102.584 Y136.939 E7.00461
G1 X101.463 Y138.061 E7.10453
G1 X100.703 Y138.061 E7.15242
G1 X101.824 Y136.939 E7.25233
G1 X101.064 Y136.939 E7.30022
G1 X99.943 Y138.061 E7.40014
G1 X99.183 Y138.061 E7.44803
G1 X100.304 Y136.939 E7.54794
G1 X99.544 Y136.939 E7.59584
G1 X98.423 Y138.061 E7.69575
G1 X97.663 Y138.061 E7.74364
G1 X98.784 Y136.939 E7.84355
G1 X98.024 Y136.939 E7.89145
G1 X96.903 Y138.061 E7.99136
G1 X96.143 Y138.061 E8.03925
G1 X97.264 Y136.939 E8.13916
G1 X96.504 Y136.939 E8.18706
G1 X95.383 Y138.061 E8.28697
G1 X94.623 Y138.061 E8.33486
G1 X95.744 Y136.939 E8.43478
G1 X94.984 Y136.939 E8.48267
G1 X93.863 Y138.061 E8.58258
G1 X93.102 Y138.061 E8.63047
G1 X94.224 Y136.939 E8.73039
G1 X93.464 Y136.939 E8.77828
G1 X92.342 Y138.061 E8.87819
G1 X91.582 Y138.061 E8.92609
G1 X92.704 Y136.939 E9.02600
G1 X91.943 Y136.939 E9.07389
G1 X90.822 Y138.061 E9.17380
G1 X90.062 Y138.061 E9.22170
G1 X91.183 Y136.939 E9.32161
G1 X90.423 Y136.939 E9.36950
G1 X89.302 Y138.061 E9.46941
G1 X88.542 Y138.061 E9.51731
G1 X89.663 Y136.939 E9.61722
G1 X88.903 Y136.939 E9.66511
G1 X87.782 Y138.061 E9.76503
G1 X87.022 Y138.061 E9.81292
G1 X88.280 Y136.802 E9.92504
G1 X87.697 Y136.625 E9.96344
G1 X86.262 Y138.061 E10.09133
G1 X85.502 Y138.061 E10.13922
G1 X87.114 Y136.449 E10.28287
G1 X86.531 Y136.272 E10.32127
G1 X84.742 Y138.061 E10.48069
G1 X83.982 Y138.061 E10.52858
G1 X85.947 Y136.095 E10.70376
G1 X85.364 Y135.918 E10.74216
G1 X84.426 Y136.856 E10.82579
G1 X84.680 Y135.842 E10.89166
G1 X84.841 Y135.681 E10.90602
G10
G92 E0
G1 X83.222 Y138.061 F6000.000
G11
G92 E0
G1 F1500
G1 X84.343 Y136.939 E0.09991
G1 X83.583 Y136.939 E0.14781
G1 X82.461 Y138.061 E0.24772
G1 X81.701 Y138.061 E0.29561
G1 X82.823 Y136.939 E0.39552
G1 X82.063 Y136.939 E0.44342
G1 X80.941 Y138.061 E0.54333
G1 X80.181 Y138.061 E0.59122
G1 X81.302 Y136.939 E0.69114
G1 X80.542 Y136.939 E0.73903
G1 X79.421 Y138.061 E0.83894
G1 X78.661 Y138.061 E0.88683
G1 X79.782 Y136.939 E0.98675
G1 X79.022 Y136.939 E1.03464
G1 X77.901 Y138.061 E1.13455
G1 X77.141 Y138.061 E1.18245
G1 X78.262 Y136.939 E1.28236
G1 X77.502 Y136.939 E1.33025
G1 X76.381 Y138.061 E1.43016
G1 X75.621 Y138.061 E1.47806
G1 X76.742 Y136.939 E1.57797
G1 X75.982 Y136.939 E1.62586
G1 X74.861 Y138.061 E1.72578
G1 X74.101 Y138.061 E1.77367
G1 X75.222 Y136.939 E1.87358
G1 X74.462 Y136.939 E1.92147
G1 X73.341 Y138.061 E2.02139
G1 X72.581 Y138.061 E2.06928
G1 X73.702 Y136.939 E2.16919
G1 X72.942 Y136.939 E2.21709
G1 X71.820 Y138.061 E2.31700
G1 X71.060 Y138.061 E2.36489
G1 X72.182 Y136.939 E2.46480
G1 X71.421 Y136.939 E2.51270
G1 X70.300 Y138.061 E2.61261
G1 X69.540 Y138.061 E2.66050
G1 X70.661 Y136.939 E2.76042
G1 X69.901 Y136.939 E2.80831
G1 X68.780 Y138.061 E2.90822
G1 X68.020 Y138.061 E2.95612
G1 X69.141 Y136.939 E3.05603
G1 X68.381 Y136.939 E3.10392
G1 X67.260 Y138.061 E3.20383
G1 X66.500 Y138.061 E3.25173
G1 X67.621 Y136.939 E3.35164
G1 X66.861 Y136.939 E3.39953
G1 X65.740 Y138.061 E3.49944
G1 X64.980 Y138.061 E3.54734
G1 X66.101 Y136.939 E3.64725
G1 X65.341 Y136.939 E3.69514
G1 X64.220 Y138.061 E3.79506
G1 X63.460 Y138.061 E3.84295
G1 X64.581 Y136.939 E3.94286
G1 X63.821 Y136.939 E3.99076
G1 X62.700 Y138.061 E4.09067
G1 X61.939 Y138.061 E4.13856
G1 X63.061 Y136.939 E4.23847
G1 X63.061 Y136.179 E4.28636
G1 X61.939 Y137.301 E4.38627
G1 X61.939 Y136.541 E4.43417
G1 X63.061 Y135.419 E4.53408
G1 X63.061 Y134.659 E4.58197
G1 X61.939 Y135.780 E4.68189
G1 X61.939 Y135.020 E4.72978
G1 X63.061 Y133.899 E4.82969
G1 X63.061 Y133.139 E4.87759
G1 X61.939 Y134.260 E4.97750
G1 X61.939 Y133.500 E5.02539
G1 X63.061 Y132.379 E5.12530
G1 X63.061 Y131.619 E5.17320
G1 X61.939 Y132.740 E5.27311
G1 X61.939 Y131.980 E5.32100
G1 X63.061 Y130.859 E5.42092
G1 X63.061 Y130.099 E5.46881
G1 X61.939 Y131.220 E5.56872
G1 X61.939 Y130.460 E5.61662
G1 X63.061 Y129.339 E5.71653
G1 X63.061 Y128.579 E5.76442
G1 X61.939 Y129.700 E5.86433
G1 X61.939 Y128.940 E5.91223
G1 X63.061 Y127.819 E6.01214
G1 X63.061 Y127.059 E6.06003
G1 X61.939 Y128.180 E6.15994
G1 X61.939 Y127.420 E6.20784
G1 X63.061 Y126.298 E6.30775
G1 X63.061 Y125.538 E6.35564
G1 X61.939 Y126.660 E6.45556
G1 X61.939 Y125.900 E6.50345
G1 X63.061 Y124.778 E6.60336
G1 X63.061 Y124.018 E6.65126
G1 X61.939 Y125.139 E6.75117
G1 X61.939 Y124.379 E6.79906
G1 X63.061 Y123.258 E6.89897
G1 X63.061 Y122.498 E6.94687
G1 X61.939 Y123.619 E7.04678
G1 X61.939 Y122.859 E7.09467
G1 X63.061 Y121.738 E7.19459
G1 X63.061 Y120.978 E7.24248
G1 X61.939 Y122.099 E7.34239
G1 X61.939 Y121.339 E7.39029
G1 X63.061 Y120.218 E7.49020
G1 X63.061 Y119.458 E7.53809
G1 X61.939 Y120.579 E7.63800
G1 X61.939 Y119.819 E7.68590
G1 X63.061 Y118.698 E7.78581
G1 X63.061 Y117.938 E7.83370
G1 X61.939 Y119.059 E7.93361
G1 X61.939 Y118.299 E7.98151
G1 X63.061 Y117.178 E8.08142
G1 X63.061 Y116.418 E8.12931
G1 X61.939 Y117.539 E8.22923
G1 X61.939 Y116.779 E8.27712
G1 X63.061 Y115.657 E8.37703
G1 X62.947 Y115.771 F6000.000
G1 F1500
G1 X62.947 Y115.623 E8.38633
G1 X63.144 Y115.574 E8.39913
G1 X64.082 Y114.636 E8.48274
G1 X64.138 Y114.821 E8.49494
G1 X64.319 Y115.159 E8.51908
G1 X64.158 Y115.320 E8.53343
G10
G92 E0
G1 X61.939 Y116.019 F6000.000
G11
G92 E0
G1 F1500
G1 X63.905 Y114.053 E0.17518
G1 X63.728 Y113.470 E0.21358
G1 X61.939 Y115.258 E0.37300
G1 X61.939 Y114.498 E0.42090
G1 X63.551 Y112.886 E0.56455
G1 X63.375 Y112.303 E0.60295
G1 X61.939 Y113.738 E0.73084
G1 X61.939 Y112.978 E0.77873
G1 X63.198 Y111.720 E0.89086
G1 X63.061 Y111.268 E0.92061
G1 X63.061 Y111.097 E0.93140
G1 X61.939 Y112.218 E1.03131
G1 X61.939 Y111.458 E1.07920
G1 X63.061 Y110.337 E1.17912
G1 X63.061 Y109.577 E1.22701
G1 X61.939 Y110.698 E1.32692
G1 X61.939 Y109.938 E1.37482
G1 X63.061 Y108.817 E1.47473
G1 X63.061 Y108.057 E1.52262
G1 X61.939 Y109.178 E1.62253
G1 X61.939 Y108.418 E1.67043
G1 X63.061 Y107.297 E1.77034
G1 X63.061 Y106.537 E1.81823
G1 X61.939 Y107.658 E1.91814
G1 X61.939 Y106.898 E1.96604
G1 X63.061 Y105.776 E2.06595
G1 X63.061 Y105.016 E2.11384
G1 X61.939 Y106.138 E2.21375
G1 X61.939 Y105.378 E2.26165
G1 X63.061 Y104.256 E2.36156
G1 X63.061 Y103.496 E2.40945
G1 X61.939 Y104.617 E2.50937
G1 X61.939 Y103.857 E2.55726
G1 X63.061 Y102.736 E2.65717
G1 X63.061 Y101.976 E2.70507
G1 X61.939 Y103.097 E2.80498
G1 X61.939 Y102.337 E2.85287
G1 X63.061 Y101.216 E2.95278
G1 X63.061 Y100.456 E3.00068
G1 X61.939 Y101.577 E3.10059
G1 X61.939 Y100.817 E3.14848
G1 X63.061 Y99.696 E3.24839
G1 X63.061 Y98.936 E3.29629
G1 X61.939 Y100.057 E3.39620
G1 X61.939 Y99.297 E3.44409
G1 X63.061 Y98.176 E3.54400
G1 X63.061 Y97.416 E3.59190
G1 X61.939 Y98.537 E3.69181
G1 X61.939 Y97.777 E3.73970
G1 X63.061 Y96.656 E3.83962
G1 X63.061 Y95.896 E3.88751
G1 X61.939 Y97.017 E3.98742
G1 X61.939 Y96.257 E4.03531
G1 X63.061 Y95.135 E4.13523
G1 X63.061 Y94.375 E4.18312
G1 X61.939 Y95.497 E4.28303
G1 X61.939 Y94.737 E4.33093
G1 X63.061 Y93.615 E4.43084
G1 X63.061 Y92.855 E4.47873
G1 X61.939 Y93.976 E4.57864
G1 X61.939 Y93.216 E4.62654
G1 X63.061 Y92.095 E4.72645
